usr/share/icons/biglinux-icons-material/scalable/apps/totem.svg

<?xml version="1.0" encoding="UTF-8" standalone="no"?>
<svg
   width="24"
   height="24"
   viewBox="0 0 6.349875 6.349875"
   version="1.1"
   id="svg2"
   sodipodi:docname="xine.svg"
   inkscape:version="1.3 (0e150ed6c4, 2023-07-21)"
   xmlns:inkscape="http://www.inkscape.org/namespaces/inkscape"
   xmlns:sodipodi="http://sodipodi.sourceforge.net/DTD/sodipodi-0.dtd"
   xmlns="http://www.w3.org/2000/svg"
   xmlns:svg="http://www.w3.org/2000/svg">
  <defs
     id="defs2">
    <linearGradient
       x1="11.9997"
       y1="0.99970198"
       x2="12"
       y2="12"
       gradientUnits="userSpaceOnUse"
       gradientTransform="scale(0.75)"
       spreadMethod="pad"
       id="linearGradient5149">
      <stop
         style="stop-color:#bf62cb;stop-opacity:0.80000001;"
         offset="0"
         id="stop5145" />
      <stop
         style="stop-color:#8f56c6;stop-opacity:0.90196079;"
         offset="1"
         id="stop5147" />
    </linearGradient>
    <clipPath
       clipPathUnits="userSpaceOnUse"
       id="clipPath5161-7">
      <path
         d="M 0,0 H 19 V 19 H 0 Z"
         id="path5159-5" />
    </clipPath>
  </defs>
  <sodipodi:namedview
     id="namedview2"
     pagecolor="#ffffff"
     bordercolor="#000000"
     borderopacity="0.25"
     inkscape:showpageshadow="2"
     inkscape:pageopacity="0.0"
     inkscape:pagecheckerboard="0"
     inkscape:deskcolor="#d1d1d1"
     inkscape:zoom="8.9603687"
     inkscape:cx="29.686278"
     inkscape:cy="28.514451"
     inkscape:window-width="2560"
     inkscape:window-height="998"
     inkscape:window-x="0"
     inkscape:window-y="0"
     inkscape:window-maximized="1"
     inkscape:current-layer="svg2" />
  <path
     d="M 1.0031966,5.4788837 C 0.69981368,5.2061918 0.49308998,4.8340186 0.38443657,4.365539 0.35833153,4.2526523 0.33751805,4.1380018 0.32093782,4.0237041 H 6.0330029 C 5.9941981,4.3105067 5.9169413,4.5860207 5.8026436,4.8505989 5.6883458,5.1000078 5.5366544,5.3095537 5.3493331,5.4788837 Z"
     style="fill:#ffffff;fill-opacity:1;fill-rule:evenodd;stroke:none;stroke-width:0.352771"
     id="path5133" />
  <g
     id="g5143"
     transform="matrix(0.35277082,0,0,0.35277082,-8.362613e-5,7.9373436e-8)">
    <path
       d="M 8.988,0.75 C 8.477,0.75 7.965,0.766 7.453,0.801 7.371,0.824 7.285,0.836 7.195,0.836 6.641,0.879 6.09,0.969 5.547,1.102 3.219,1.656 1.75,3.09 1.141,5.402 0.855,6.582 0.727,7.777 0.754,8.992 0.738,9.805 0.789,10.609 0.91,11.406 h 16.192 c 0.007,-0.047 0.011,-0.097 0.019,-0.144 0.082,-0.731 0.125,-1.461 0.129,-2.192 V 8.785 C 17.246,8.379 17.23,7.973 17.207,7.566 17.148,6.586 16.961,5.629 16.641,4.699 16.078,3.156 15.039,2.07 13.52,1.445 12.605,1.098 11.66,0.887 10.684,0.809 10.133,0.77 9.578,0.75 9.027,0.75 Z m 6.176,14.781 H 2.844 c 0.742,0.668 1.691,1.133 2.84,1.387 1.07,0.223 2.148,0.332 3.234,0.332 0.008,0 0.016,0 0.023,0 0.278,0 0.555,-0.008 0.832,-0.023 1.227,-0.02 2.418,-0.227 3.575,-0.618 0.699,-0.257 1.304,-0.617 1.816,-1.078 z"
       style="fill:url(#linearGradient5149);fill-rule:evenodd;stroke:none"
       id="path5151" />
  </g>
  <path
     d="m 2.6566334,1.2346979 c -0.042685,-0.00141 -0.085371,0.00564 -0.1252336,0.021872 -0.040216,0.015169 -0.077257,0.040216 -0.1075951,0.069143 -0.031749,0.030338 -0.055032,0.065968 -0.073024,0.106184 -0.01658,0.039863 -0.024694,0.082548 -0.024694,0.1252337 v 1.4950427 c 0,0.2479979 0.2698696,0.4039226 0.4850598,0.2797473 l 1.2939639,-0.746816 c 0.049388,-0.028927 0.089604,-0.06879 0.118531,-0.1185309 0.027516,-0.049388 0.042685,-0.104773 0.042685,-0.1612163 0,-0.057854 -0.015169,-0.1128867 -0.042685,-0.1626274 C 4.1947144,2.093342 4.1544984,2.053126 4.1051104,2.024199 L 2.811147,1.2773832 C 2.7642285,1.2498671 2.7120184,1.236109 2.6566334,1.2346979 Z"
     style="fill:#ffffff;fill-opacity:1;fill-rule:evenodd;stroke:none;stroke-width:0.352771"
     id="path5153" />
  <g
     id="g5155"
     transform="matrix(0.35277082,0,0,0.35277082,-8.362613e-5,7.9373436e-8)">
    <g
       id="g5157" />
    <g
       id="g5169">
      <g
         clip-path="url(#clipPath5161-7)"
         opacity="0.25"
         id="g5167">
        <g
           id="g5165">
          <path
             d="m 15.188,13.125 h -4.813 c -0.191,0 -0.344,0.152 -0.344,0.344 0,0.187 0.153,0.343 0.344,0.343 h 4.813 c 0.187,0 0.343,-0.156 0.343,-0.343 0,-0.192 -0.156,-0.344 -0.343,-0.344 z"
             style="fill:#000000;fill-opacity:1;fill-rule:nonzero;stroke:none"
             id="path5163" />
        </g>
      </g>
    </g>
  </g>
  <path
     d="M 3.4175601,4.6301171 H 0.99190792 c -0.0673792,0 -0.12100039,0.053621 -0.12100039,0.1213532 0,0.065968 0.0536212,0.1210003 0.12100039,0.1210003 H 3.4175601 c 0.067379,0 0.1210004,-0.055032 0.1210004,-0.1210003 0,-0.067732 -0.053621,-0.1213532 -0.1210004,-0.1213532 z"
     style="fill:#8f56c6;fill-opacity:0.90196079;fill-rule:nonzero;stroke:none;stroke-width:0.352771"
     id="path5171" />
  <path
     d="m 3.5385605,5.115177 c 0.2014321,0 0.3637067,-0.1626274 0.3637067,-0.3637067 0,-0.2014322 -0.1622746,-0.3637068 -0.3637067,-0.3637068 -0.2010794,0 -0.3637067,0.1622746 -0.3637067,0.3637068 0,0.2010793 0.1626273,0.3637067 0.3637067,0.3637067 z"
     style="fill:#ffffff;fill-opacity:1;fill-rule:nonzero;stroke:none;stroke-width:0.352771"
     id="path5173" />
</svg>

<svg xmlns="http://www.w3.org/2000/svg" width="24" height="24" viewBox="0 0 6.35 6.35"><defs><linearGradient id="a" x1="12" x2="12" y1="1" y2="12" gradientTransform="scale(.75)" gradientUnits="userSpaceOnUse" spreadMethod="pad"><stop offset="0" style="stop-color:#bf62cb;stop-opacity:.80000001"/><stop offset="1" style="stop-color:#8f56c6;stop-opacity:.90196079"/></linearGradient><clipPath id="b" clipPathUnits="userSpaceOnUse"><path d="M0 0h19v19H0Z"/></clipPath></defs><path d="M1.003 5.479C.7 5.206.493 4.834.384 4.366a4.19 4.19 0 0 1-.063-.342h5.712a3.136 3.136 0 0 1-.23.827c-.115.249-.266.459-.454.628Z" style="fill:#fff;fill-opacity:1;fill-rule:evenodd;stroke:none;stroke-width:.352771"/><path d="M8.988.75c-.511 0-1.023.016-1.535.051a.951.951 0 0 1-.258.035 10.27 10.27 0 0 0-1.648.266c-2.328.554-3.797 1.988-4.406 4.3a13.858 13.858 0 0 0-.387 3.59c-.016.813.035 1.617.156 2.414h16.192c.007-.047.011-.097.019-.144.082-.731.125-1.461.129-2.192v-.285a26.17 26.17 0 0 0-.043-1.219 10.762 10.762 0 0 0-.566-2.867c-.563-1.543-1.602-2.629-3.121-3.254a10.26 10.26 0 0 0-2.836-.636A23.519 23.519 0 0 0 9.027.75Zm6.176 14.781H2.844c.742.668 1.691 1.133 2.84 1.387 1.07.223 2.148.332 3.234.332h.023c.278 0 .555-.008.832-.023a11.693 11.693 0 0 0 3.575-.618 5.537 5.537 0 0 0 1.816-1.078z" style="fill:url(#a);fill-rule:evenodd;stroke:none" transform="scale(.35277)"/><path d="M2.657 1.235a.326.326 0 0 0-.33.322v1.495c0 .248.269.404.484.28l1.294-.747a.326.326 0 0 0 .161-.28.334.334 0 0 0-.042-.162.33.33 0 0 0-.119-.119l-1.294-.747a.318.318 0 0 0-.154-.042Z" style="fill:#fff;fill-opacity:1;fill-rule:evenodd;stroke:none;stroke-width:.352771"/><g clip-path="url(#b)" opacity=".25" transform="scale(.35277)"><path d="M15.188 13.125h-4.813a.342.342 0 0 0-.344.344c0 .187.153.343.344.343h4.813a.344.344 0 0 0 0-.687z" style="fill:#000;fill-opacity:1;fill-rule:nonzero;stroke:none"/></g><path d="M3.418 4.63H.992a.121.121 0 0 0 0 .242h2.426a.121.121 0 0 0 0-.242z" style="fill:#8f56c6;fill-opacity:.90196079;fill-rule:nonzero;stroke:none;stroke-width:.352771"/><path d="M3.539 5.115a.363.363 0 1 0 0-.726.363.363 0 0 0 0 .726z" style="fill:#fff;fill-opacity:1;fill-rule:nonzero;stroke:none;stroke-width:.352771"/></svg>
